X: 1
T: Curragh, The
M: 6/8
L: 1/8
R: jig
K: Dmaj
|:B|A2d dcd|BGB A2g|faf dcd|ecA GFG|
A2d dcd|BGB A2g|fga Ace|d3 d2:|
|:e|f2d a2d|fdf a2f|e2A cBA|e2f gfe|
f2d a2d|BGB A2g|fga Ace|d3 d2:|
